!!!!SEGMENT: pl-kk--kk-i-487--003_anonim--zdrowas-badz-maryja.krn
!!!cenid: 18xx:1358
!!!COM: Anonim
!!!COM-rismid: pe30004985
!!!CDT:
!!!CNT:
!!!OTL: Zdrowaś bądź Maryja
!!!PDT:
!!!AGN: Sacred
!!!SMS-siglum: PL-Kk
!!!SMS-shelfmark: Kk.I.487
!!!SMS-shelfwork: 003 W
!!!SMS-variant:
!!!SMS-altvar:
!!!NIFC-rismid: 1001141045
!!!URL-scan: http://repozytorium.nifc.pl/skany/pl-kk-nut--i-487
!!!ONB-nifc:
**kern	**text	**text	**kern	**text	**text	**kern	**text	**text	**kern
*part4	*part4	*part4	*part3	*part3	*part3	*part2	*part2	*part2	*part1
*staff4	*staff4	*staff4	*staff3	*staff3	*staff3	*staff2	*staff2	*staff2	*staff1
*I"Bas	*	*	*I"Tenor	*	*	*I"alt.	*	*	*I"Sopran
*I'B	*	*	*I'T	*	*	*I'A	*	*	*I'S
*clefF4	*	*	*clefC4	*	*	*clefC3	*	*	*clefC1
*k[b-]	*	*	*k[b-]	*	*	*k[b-]	*	*	*k[b-]
*F:	*	*	*F:	*	*	*F:	*	*	*F:
*M4/4	*	*	*M4/4	*	*	*M4/4	*	*	*M4/4
*met(c)	*	*	*met(c)	*	*	*met(c)	*	*	*met(c)
=1	=1	=1	=1	=1	=1	=1	=1	=1	=1
*2\right	*	*	*2\right	*	*	*2\right	*	*	*2\right
!LO:TX:t=P:problem:all\right:global	!	!	!LO:TX:t=P:problem:all\right:global	!	!	!LO:TX:t=P:problem:all\right:global	!	!	!LO:TX:t=P:problem:w źródle brak sopranu
!LO:TX:a:t=3.	!	!	!LO:TX:a:t=3.	!	!	!LO:TX:a:t=3.	!	!	!
!LO:TX:t=P:problem:oznaczenie numeru utworu "3" przed kluczem	!	!	!LO:TX:t=P:problem:oznaczenie numeru utworu "3" przed kluczem	!	!	!LO:TX:t=P:problem:oznaczenie numeru utworu "3" przed kluczem	!	!	!
4F\	Zdro-	Ma-	4A\	Zdro-	ma-	4c\	Zdro-	ma-	1ryy
4F\	-waś	-ry-	4A\	-waś	-ry-	4c\	-was	-ry-	.
4F\	bądz	-a	4c\	bądz	-a	4f\	bądz	-a	.
4D\	Ma-	wie-	4G/	Ma-	wie-	4f\	Ma-	wie-	.
=2	=2	=2	=2	=2	=2	=2	=2	=2	=2
2C/	-ri-	-le-	2G/	-ry-	-le-	2e\	-ry-	-le-	1ryy
4C/	-a	-bna	4G/	-ja	-bna	4e\	-ja	-bna	.
4r	.	.	4r	.	.	4r	.	.	.
=3	=3	=3	=3	=3	=3	=3	=3	=3	=3
4G\	nie-	u-	4Bn\	nie-	u-	4g\	nie-	u-	1ryy
4C/	-bie-	-każ	4B-X\	-bie-	-kaz	4g\	-bie-	-każ	.
4D\	-ska	dro-	4A\	-ska	dro-	4f\	-ska	dro-	.
4E\	li-	-gę	4c\	li-	-gę	4g\	li-	-gę	.
=4	=4	=4	=4	=4	=4	=4	=4	=4	=4
(>4F\	-li-	pe-	(>4c\	-li-	pe-	2f\	-li-	pe-	1ryy
4D\)	.	.	4G\)	.	.	.	.	.	.
4C/	-ja	-wną	4G/	-ja	-wną	4e\	-ja	-wną	.
4r	.	.	4r	.	.	4r	.	.	.
!	!	!	!LO:LB:g=original	!	!	!	!	!	!
=5	=5	=5	=5	=5	=5	=5	=5	=5	=5
4D\	Pa-	przy-	4F/	Pa-	przy-	4f\	Pa-	przy-	1ryy
4E\	-nu	-ka-	4G/	-nu	-ka-	4c\	-nu	-ka-	.
(>8F\L	Bo-	-za-	4F/	Bo-	-za-	4c\	Bo-	-za-	.
8E\J)	.	.	.	.	.	.	.	.	.
4D\	-gu	-nia	4F/	-gu	-nia	4B-/	-gu	-nia	.
!LO:LB:g=original	!	!	!	!	!	!LO:LB:g=original	!	!	!
=6	=6	=6	=6	=6	=6	=6	=6	=6	=6
*^	*	*	*	*	*	*	*	*	*
2C/	2ryy	mi-	twe-	(<4F/	mi-	twe-	(>4c\	mi-	twe-	1ryy
.	.	.	.	4E/)	.	.	4B-\)	.	.	.
4F/	4FF\	-ła	-go	4F/	-ła	-go	4A/	-ła	-go	.
4r	4ryy	.	.	4r	.	.	4r	.	.	.
*v	*v	*	*	*	*	*	*	*	*	*
=7	=7	=7	=7	=7	=7	=7	=7	=7	=7
4C/	ma-	Bo-	4G/	ma-	Bo-	4.c\	ma-	Bo-	1ryy
4D\	-tko	-ga	4G/	-tko	-ga	.	.	.	.
.	.	.	.	.	.	8Bn\	-tko	-ga	.
4E\	li-	wszech-	4G/	li-	wszech-	(>8B\L	li-	wszech-	.
.	.	.	.	.	.	8c\J)	.	.	.
4F\	-to-	-mo-	4F/	-to-	-mo-	4c\	-to-	-mo-	.
=8	=8	=8	=8	=8	=8	=8	=8	=8	=8
*	*	*	*^	*	*	*	*	*	*
(<8E/L	-śći-	-cne-	[>2G/	4.G\	-śći-	-cne-	(>8c\L	-ści-	-cne-	1ryy
8BBn/	.	.	.	.	.	.	8d\	.	.	.
8C/	.	.	.	.	.	.	8c\	.	.	.
8GG/J)	.	.	.	8F\	.	.	8Bn\J)	.	.	.
4C/	-wa	-go	4G/]	4E\	-wa	-go	4c\	-wa	-go	.
4r	.	.	4r	4ryy	.	.	4r	.	.	.
*	*	*	*v	*v	*	*	*	*	*	*
!	!	!	!LO:LB:g=original	!	!	!	!	!	!
=9!|:	=9!|:	=9!|:	=9	=9	=9	=9!|:	=9!|:	=9!|:	=9!|:
!	!	!	!LO:TX:t=P:problem:brak znaku powtórzenia	!	!	!	!	!	!
4AA/	tyś	on	4F/	tyś	on	4c\	tyś	on	1ryy
4C/	jest	ci	4c\	jest	ci	4e\	jest	ci	.
4F\	na-	wszy-	4c\	na-	wszys-	4f\	na-	wszys-	.
4F\	-sza	-stka	4A\	-sza	-tka	4c/	-sza	-tka	.
=10	=10	=10	=10	=10	=10	=10	=10	=10	=10
4E\	u-	na-	4G/	u-	na-	4c\	u-	na-	1ryy
4D\	-ciecz-	-dzie-	4G/	-ciecz-	-dzie-	4f\	-ciecz-	-dzie-	.
2C/	-ka	-ja	2G/	-ka	-ja	2e\	-ka	-ja	.
!LO:LB:g=original	!	!	!	!	!	!LO:LB:g=original	!	!	!
=11	=11	=11	=11	=11	=11	=11	=11	=11	=11
*	*	*	*^	*	*	*	*	*	*
4F\	naj-	zba-	4A/	4A\	naj-	zba-	4c\	naj-	zba-	1ryy
4E\	-swię-	-wie-	4G/	4G\	-swię-	-wie-	4c\	-swię-	-wie-	.
4E-X\	-tsza	-nia	4c/	4F\	-tsza	-nia	4f\	-tsza	-nia	.
4D\	Ma-	na-	4B-/	4F\	Ma-	na-	4f\	Ma-	na-	.
=12	=12	=12	=12	=12	=12	=12	=12	=12	=12	=12
2C/	-ry-	-sze-	(>4c/	(<4F\	-ry-	-sze-	(>4f\	-ry-	-sze-	1ryy
.	.	.	4B-/)	4E\)	.	.	4c\)	.	.	.
4F\	-ja	-go	4A/	4F\	-ja	-go	4c\	-ja	-go	.
4r	.	.	4r	4ryy	.	.	4r	.	.	.
*	*	*	*v	*v	*	*	*	*	*	*
==	==	==	==	==	==	==	==	==	==
*-	*-	*-	*-	*-	*-	*-	*-	*-	*-
!!!system-decoration: [(s1,s2,s3,s4)]
!!!RDF**kern: > = above
!!!RDF**kern: < = below
!!!EED: Mateusz Mrugas
!!!EST: 2021-01-18
!!!ENC: Tomasz Grochalski
!!!END: 2021-01-10
